Sources/FrostedUI/Resources/Icons.xcassets/shoppingBag32.imageset/shopping-bag-32.svg

<svg width="32" height="32" viewBox="0 0 32 32" fill="none" xmlns="http://www.w3.org/2000/svg" data-fui-icon="true">
  <path
    d="M21.9374 1.61328C25.9187 1.61328 29.2528 4.63032 29.6493 8.5918L30.9764 21.8652C31.4324 26.4274 27.8495 30.3857 23.2645 30.3857H8.73523C4.15034 30.3857 0.567318 26.4274 1.02332 21.8652L2.35046 8.5918C2.74695 4.63035 6.08108 1.61334 10.0624 1.61328H21.9374ZM10.0624 3.11328C6.85164 3.11334 4.16236 5.54647 3.84265 8.74121L2.5155 22.0137C2.14758 25.6929 5.03765 28.8857 8.73523 28.8857H23.2645C26.9622 28.8857 29.8522 25.693 29.4843 22.0137L28.1571 8.74121C27.8374 5.54644 25.1482 3.11328 21.9374 3.11328H10.0624ZM21.9999 8.25C22.4141 8.25 22.7499 8.58579 22.7499 9H21.9999C22.7115 9 22.748 9.00057 22.7499 9.00098V9.0293C22.7496 9.04481 22.7488 9.06637 22.7479 9.09277C22.7462 9.14554 22.7428 9.21963 22.7362 9.31152C22.7231 9.49544 22.6976 9.75326 22.6464 10.0605C22.5444 10.6721 22.3387 11.4991 21.9208 12.335C21.5013 13.1739 20.8602 14.0362 19.8846 14.6865C18.9044 15.34 17.6311 15.75 15.9999 15.75C14.3687 15.75 13.0953 15.34 12.1151 14.6865C11.1396 14.0362 10.4985 13.1739 10.079 12.335C9.66111 11.4991 9.45531 10.6721 9.35339 10.0605C9.30219 9.75326 9.2767 9.49544 9.26355 9.31152C9.25699 9.21963 9.25359 9.14554 9.25183 9.09277C9.25095 9.06637 9.25013 9.04481 9.24988 9.0293V9.00098C9.24988 9.00056 9.25004 9 9.99988 9H9.24988C9.24988 8.58583 9.58572 8.25006 9.99988 8.25C10.4134 8.25 10.7488 8.58473 10.7499 8.99805C10.7499 8.9989 10.7498 9.00142 10.7499 9.00488C10.75 9.01202 10.7503 9.02467 10.7509 9.04199C10.752 9.07705 10.7545 9.13231 10.7596 9.2041C10.7699 9.34822 10.7914 9.55955 10.8339 9.81445C10.9194 10.3278 11.0889 11.0012 11.4208 11.665C11.7513 12.3259 12.2354 12.9639 12.9471 13.4385C13.6544 13.91 14.6312 14.25 15.9999 14.25C17.3686 14.25 18.3454 13.9099 19.0526 13.4385C19.7644 12.9639 20.2485 12.3259 20.579 11.665C20.9109 11.0012 21.0803 10.3278 21.1659 9.81445C21.2084 9.55954 21.2298 9.34823 21.2401 9.2041C21.2452 9.13231 21.2477 9.07705 21.2489 9.04199C21.2495 9.02467 21.2498 9.01202 21.2499 9.00488C21.2499 9.00143 21.2499 8.9989 21.2499 8.99805C21.2509 8.58477 21.5864 8.25006 21.9999 8.25Z"
    fill="currentColor"
  />
</svg>

<svg xmlns="http://www.w3.org/2000/svg" width="32" height="32" fill="none" data-fui-icon="true" viewBox="0 0 32 32"><path fill="currentColor" d="M21.937 1.613a7.75 7.75 0 0 1 7.712 6.979l1.327 13.273c.456 4.562-3.126 8.52-7.711 8.52H8.735c-4.585 0-8.168-3.958-7.712-8.52L2.35 8.592a7.75 7.75 0 0 1 7.712-6.979zm-11.875 1.5c-3.21 0-5.9 2.433-6.22 5.628L2.516 22.014a6.25 6.25 0 0 0 6.22 6.872h14.53a6.25 6.25 0 0 0 6.22-6.872L28.156 8.74a6.25 6.25 0 0 0-6.22-5.628zM22 8.25a.75.75 0 0 1 .75.75H22l.75.001v.028l-.002.064a8.068 8.068 0 0 1-.102.968 8.1 8.1 0 0 1-.725 2.274c-.42.839-1.06 1.701-2.036 2.351-.98.654-2.254 1.064-3.885 1.064s-2.905-.41-3.885-1.063c-.975-.65-1.617-1.513-2.036-2.352a8.1 8.1 0 0 1-.726-2.275 8 8 0 0 1-.101-.967l-.002-.064v-.028L10 9h-.75a.75.75 0 0 1 1.5-.002v.044l.01.162c.01.144.031.356.074.61.085.514.255 1.187.587 1.851.33.66.814 1.299 1.526 1.774.707.471 1.684.811 3.053.811s2.345-.34 3.053-.812c.711-.474 1.195-1.112 1.526-1.773a6.6 6.6 0 0 0 .587-1.85 7 7 0 0 0 .084-.81v-.007A.75.75 0 0 1 22 8.25"/></svg>
